X:600
T: Paddy the Lilter (with piano acc.)
C: BB
M: 6/8
Q: 1/8=320
L: 1/8
R: jig
V: 1 program 1 73 %flute
V: 2 volume=70 clef=bass m=D program 1 00
K: D
[V:1] A | "D"dAB AFD | "Em"EFG "D"FED | "Em"EFG "D"FEF | "G"GAB "A"cAc |
[V:2] z|D,2[AFD]A,,2[AFD]|E,2[EGB]D,2[AFD]|E,2[EGB]D,2[AFD]|G,,2[GBD] A,,2[ACE]|
%
[V:1] "D"dAB AFD | "Em"EFG "D"FED | "Em"EGB "A"Ace | "D"fdc "D"d2 :|
[V:2] D,2[AFD]A,,2[AFD]|E,2[EGB]D,2[AFD]|E,2[EGB] A,,2[ACE]|D,2[AFD][D,2F,2A,2]:|
%
[V:1] A| "A7"Ace geg | "D"fdf "A"ecA | "A"Ace "G"gab | "A7"gec "D"d2 B |
[V:2] z|A,,2[ACE]E,,2[ACE]|D,2[AFD] A,,2[ACE]|C,2[ACE]G,,2[GBD]|A,,2[GCE]D,2[AFD]|
%
[V:1] "A7"Ace geg | "D"fdf "Em"efg | "D"afd "Bm"Bcd |"A"edc "D"d2 :|
[V:2]  A,,2[GCE]E,,2[GCE]|D,2[AFD]E,2[EGB]|D,2[AFD]B,,2[BDF]|A,,2[ACE][D,2F,2A,2]:|

%%%%%%%%%%%%%%%%%%%%%%%%%%%%%%%%%%%%%%%%%%%

